_uploads/ornament-mark-outline.svg

<svg width="40" height="40" viewBox="0 0 40 40" fill="none" xmlns="http://www.w3.org/2000/svg">
<path fill-rule="evenodd" clip-rule="evenodd" d="M20 39C30.4934 39 39 30.4934 39 20C39 9.50659 30.4934 1 20 1C9.50659 1 1 9.50659 1 20C1 30.4934 9.50659 39 20 39ZM40 20C40 31.0457 31.0457 40 20 40C8.9543 40 0 31.0457 0 20C0 8.9543 8.9543 0 20 0C31.0457 0 40 8.9543 40 20Z" fill="black"/>
<path d="M18.8 10.32H21.25V16L20.79 24.51H19.25L18.8 16V10.32ZM21.62 29.72H18.42V26.84H21.62V29.72Z" fill="black"/>
</svg>

<svg width="40" height="40" fill="none" xmlns="http://www.w3.org/2000/svg"><path fill-rule="evenodd" clip-rule="evenodd" d="M20 39c10.493 0 19-8.507 19-19S30.493 1 20 1 1 9.507 1 20s8.507 19 19 19zm20-19c0 11.046-8.954 20-20 20S0 31.046 0 20 8.954 0 20 0s20 8.954 20 20z" fill="#000"/><path d="M18.8 10.32h2.45V16l-.46 8.51h-1.54L18.8 16v-5.68zm2.82 19.4h-3.2v-2.88h3.2v2.88z" fill="#000"/></svg>
